actions/22/process-stop.svg

<svg xmlns="http://www.w3.org/2000/svg" viewBox="0 0 22 22">
 <g transform="translate(0-1030.3622)" style="fill:#da4453">
  <path d="m11 1033.3622c4.431966 0 8 3.568 8 8 0 1.4417-.382871 2.7893-1.044922 3.9551l-.738281-.7383c.497374-.9629.783203-2.0543.783203-3.2168 0-3.878-3.12203-7-7-7-1.162509 0-2.25389.2858-3.216797.7832l-.738281-.7383c1.165789-.662 2.513364-1.0449 3.955078-1.0449m-6.955078 4.0449l.738281.7383c-.497375.9629-.783203 2.0543-.783203 3.2168 0 3.878 3.12203 7 7 7 1.16251 0 2.25389-.2858 3.216797-.7832l.738281.7383c-1.165789.662-2.513364 1.0449-3.955078 1.0449-4.431966 0-8-3.568-8-8 0-1.4417.382871-2.7893 1.044922-3.9551"/>
  <path d="m7.4999 1040.36h7.0002v2h-7.0002z"/>
 </g>
</svg>

<svg xmlns="http://www.w3.org/2000/svg" version="1.1" viewBox="0 0 22 22">
 <g style="fill:#da4453" transform="translate(0,-1030.4)">
  <path d="M 11,1033.4 C 15.432,1033.4 19,1036.9 19,1041.4 19,1042.8 18.617,1044.2 17.955,1045.3 L 17.217,1044.6 C 17.714,1043.6 18,1042.5 18,1041.4 18,1037.5 14.878,1034.4 11,1034.4 9.8375,1034.4 8.7461,1034.6 7.7832,1035.1 L 7.0449,1034.4 C 8.2107,1033.7 9.5583,1033.4 11,1033.4 M 4.0449,1037.4 4.7832,1038.1 C 4.2858,1039.1 4,1040.2 4,1041.4 4,1045.2 7.122,1048.4 11,1048.4 12.163,1048.4 13.254,1048.1 14.217,1047.6 L 14.955,1048.3 C 13.789,1049 12.442,1049.4 11,1049.4 6.568,1049.4 3,1045.8 3,1041.4 3,1039.9 3.3829,1038.6 4.0449,1037.4"/>
  <path d="M 7.4999,1040.4 H 14.5 V 1042.4 H 7.4999 Z"/>
 </g>
</svg>
